X: 16948
T: Hawk, The
R: hornpipe
M: 4/4
K: Emajor
(3Bcd|e2ge Begf|egfa gbag|f2af cfag|fedc BcdB|
e2ge Begf|egfa gbag|fefg aBcd|eBgf e2:|
|:(3BBB|Bbge Bafd|Ba/g/fd edcB|cBdc edfe|gfag f2fg|
abga fgef|dbca BgAf|defg aBcd|eBgf e2:|

